X:203
T:Mutt's Favorite
C:Jerry Holland
R:reel
M:4/4
L:1/8
K:Ador
EAAc B2Ac | BAAg feea | EAAc B2Ac |kBGGA BcdD |
EAAc B2Ac | BAAg feef | gfgd e2eg | BGBc dBGB ::
EA A/A/A fA A/A/A | gA A/A/A aA A/A/A | EAfA gAaA | fgdg BGGD |
EA A/A/A fA A/A/A | gA A/A/A aA A/A/A | EAfA gAaA | fgdg BGGD :|
